localPackages/DesignSystem/Sources/DesignSystem/Resources/Assets.xcassets/IconSet/ic-drive.imageset/ic-drive.svg

<svg width="24" height="24" viewBox="0 0 24 24" fill="none" xmlns="http://www.w3.org/2000/svg">
<g id="ic-drive">
<path id="Icon" fill-rule="evenodd" clip-rule="evenodd" d="M21 18V15.75V15C21 14.1716 20.3284 13.5 19.5 13.5H4.5C3.67157 13.5 3 14.1716 3 15V15.75V18C3 18.8284 3.67157 19.5 4.5 19.5H19.5C20.3284 19.5 21 18.8284 21 18ZM22.5 18V15.75V15V14.1158C22.5 13.7095 22.4175 13.3074 22.2574 12.934L18.7792 4.81824C18.3065 3.71519 17.2219 3 16.0218 3H7.97819C6.7781 3 5.69349 3.71519 5.22075 4.81824L1.74256 12.934C1.58252 13.3074 1.5 13.7095 1.5 14.1158V15V15.75V18C1.5 19.6569 2.84315 21 4.5 21H19.5C21.1569 21 22.5 19.6569 22.5 18ZM17.4005 5.40912L20.2677 12.0991C20.0226 12.0344 19.7653 12 19.5 12H4.5C4.23465 12 3.97735 12.0344 3.73233 12.0991L6.59947 5.40912C6.83584 4.8576 7.37815 4.5 7.97819 4.5H16.0218C16.6219 4.5 17.1642 4.8576 17.4005 5.40912ZM18.75 17.25C19.1642 17.25 19.5 16.9142 19.5 16.5C19.5 16.0858 19.1642 15.75 18.75 15.75C18.3358 15.75 18 16.0858 18 16.5C18 16.9142 18.3358 17.25 18.75 17.25Z" fill="#0F0F0F"/>
</g>
</svg>

<svg xmlns="http://www.w3.org/2000/svg" width="24" height="24" viewBox="0 0 24 24">
  <g class="ic-drive">
    <path fill-rule="evenodd" d="M21 18v-3a1.5 1.5 0 0 0-1.5-1.5h-15A1.5 1.5 0 0 0 3 15v3a1.5 1.5 0 0 0 1.5 1.5h15A1.5 1.5 0 0 0 21 18Zm1.5 0v-3.884c0-.406-.082-.809-.243-1.182L18.78 4.818A3 3 0 0 0 16.022 3H7.978a3 3 0 0 0-2.757 1.818l-3.478 8.116a3 3 0 0 0-.243 1.182V18a3 3 0 0 0 3 3h15a3 3 0 0 0 3-3ZM17.4 5.41l2.868 6.69a3.004 3.004 0 0 0-.768-.1h-15c-.265 0-.523.034-.768.1L6.6 5.41a1.5 1.5 0 0 1 1.38-.91h8.043a1.5 1.5 0 0 1 1.379.91Zm1.35 11.84a.75.75 0 1 0 0-1.5.75.75 0 0 0 0 1.5Z" class="Icon"/>
  </g>
</svg>
